images/hamburger-menu(1).svg

<!DOCTYPE svg PUBLIC "-//W3C//DTD SVG 1.1//EN" "http://www.w3.org/Graphics/SVG/1.1/DTD/svg11.dtd">
<!-- Uploaded to: SVG Repo, www.svgrepo.com, Transformed by: SVG Repo Mixer Tools -->
<svg width="64px" height="64px" viewBox="0 0 24 24" fill="none" xmlns="http://www.w3.org/2000/svg">
<g id="SVGRepo_bgCarrier" stroke-width="0"/>
<g id="SVGRepo_tracerCarrier" stroke-linecap="round" stroke-linejoin="round"/>
<g id="SVGRepo_iconCarrier"> <path fill-rule="evenodd" clip-rule="evenodd" d="M20.75 7C20.75 7.41421 20.4142 7.75 20 7.75L4 7.75C3.58579 7.75 3.25 7.41421 3.25 7C3.25 6.58579 3.58579 6.25 4 6.25L20 6.25C20.4142 6.25 20.75 6.58579 20.75 7Z" fill="#000000"/> <path fill-rule="evenodd" clip-rule="evenodd" d="M20.75 12C20.75 12.4142 20.4142 12.75 20 12.75L4 12.75C3.58579 12.75 3.25 12.4142 3.25 12C3.25 11.5858 3.58579 11.25 4 11.25L20 11.25C20.4142 11.25 20.75 11.5858 20.75 12Z" fill="#000000"/> <path fill-rule="evenodd" clip-rule="evenodd" d="M20.75 17C20.75 17.4142 20.4142 17.75 20 17.75L4 17.75C3.58579 17.75 3.25 17.4142 3.25 17C3.25 16.5858 3.58579 16.25 4 16.25L20 16.25C20.4142 16.25 20.75 16.5858 20.75 17Z" fill="#000000"/> </g>
</svg>

<svg width="64" height="64" viewBox="0 0 24 24" fill="none" xmlns="http://www.w3.org/2000/svg"><g fill-rule="evenodd" clip-rule="evenodd" fill="#000"><path d="M20.75 7a.75.75 0 0 1-.75.75H4a.75.75 0 0 1 0-1.5h16a.75.75 0 0 1 .75.75ZM20.75 12a.75.75 0 0 1-.75.75H4a.75.75 0 0 1 0-1.5h16a.75.75 0 0 1 .75.75ZM20.75 17a.75.75 0 0 1-.75.75H4a.75.75 0 0 1 0-1.5h16a.75.75 0 0 1 .75.75Z"/></g></svg>
